findly-builder/apps/searchassist/src/assets/icons/graph.svg

<svg width="70" height="29" viewBox="0 0 70 29" fill="none" xmlns="http://www.w3.org/2000/svg">
<path d="M0 23.5H11.3412C13.7592 23.5331 19.4047 21.592 22.937 18.8874C27.3525 15.5067 30.6642 7.6515 34.4489 7.75094C38.2336 7.85037 39.8054 28 45.7978 28C51.7903 28 51.6377 16.1033 57.4725 15.2084C63.3072 14.3135 63.6226 18.1914 68.8266 17.4954" stroke="#3368BB"/>
<path d="M0.173828 22.9947H11.5137C13.9286 23.0452 19.6406 22.1149 23.1685 17.9893C27.5785 12.8323 30.8859 0.849749 34.6659 1.00143C38.4458 1.1531 40.0208 28 46.0057 28C51.9907 28 51.8332 13.7423 57.6606 12.3772C63.488 11.0121 63.803 16.9275 69.0004 15.8658" stroke="black"/>
</svg>

<svg width="70" height="29" fill="none" xmlns="http://www.w3.org/2000/svg"><path d="M0 23.5h11.341c2.418.033 8.064-1.908 11.596-4.613 4.415-3.38 7.727-11.236 11.512-11.136C38.234 7.85 39.805 28 45.798 28c5.992 0 5.84-11.897 11.674-12.792 5.835-.895 6.15 2.983 11.355 2.287" stroke="#3368BB"/><path d="M.174 22.995h11.34c2.415.05 8.127-.88 11.655-5.006 4.41-5.157 7.717-17.14 11.497-16.988C38.446 1.153 40.02 28 46.006 28c5.985 0 5.827-14.258 11.655-15.623 5.827-1.365 6.142 4.55 11.34 3.489" stroke="#000"/></svg>
